dist/assets/images/object-promo-1.svg

<?xml version="1.0" encoding="UTF-8"?>
<svg width="24px" height="27px" viewBox="0 0 24 27" version="1.1" xmlns="http://www.w3.org/2000/svg" xmlns:xlink="http://www.w3.org/1999/xlink">
    <!-- Generator: Sketch 41.2 (35397) - http://www.bohemiancoding.com/sketch -->
    <title>Page 1</title>
    <desc>Created with Sketch.</desc>
    <defs></defs>
    <g id="4.-Объект" stroke="none" stroke-width="1" fill="none" fill-rule="evenodd">
        <g id="Объекты-[Desktop-1600]" transform="translate(-1399.000000, -901.000000)" fill="#FFFFFF">
            <g id="Page-1" transform="translate(1399.000000, 901.000000)">
                <polygon id="Fill-1" points="5.17434146 13.5573659 7.88370732 13.5573659 7.88370732 11.1520976 5.17434146 11.1520976"></polygon>
                <polygon id="Fill-2" points="10.5134634 13.5573659 13.2225366 13.5573659 13.2225366 11.1520976 10.5134634 11.1520976"></polygon>
                <polygon id="Fill-3" points="15.8522927 13.5573659 18.5610732 13.5573659 18.5610732 11.1520976 15.8522927 11.1520976"></polygon>
                <polygon id="Fill-4" points="5.17434146 17.6862439 7.88370732 17.6862439 7.88370732 15.2809756 5.17434146 15.2809756"></polygon>
                <polygon id="Fill-5" points="10.5134634 17.6862439 13.2225366 17.6862439 13.2225366 15.2809756 10.5134634 15.2809756"></polygon>
                <polygon id="Fill-6" points="15.8522927 17.6862439 18.5610732 17.6862439 18.5610732 15.2809756 15.8522927 15.2809756"></polygon>
                <polygon id="Fill-7" points="5.17434146 21.8154146 7.88370732 21.8154146 7.88370732 19.4101463 5.17434146 19.4101463"></polygon>
                <polygon id="Fill-8" points="10.5134634 21.8154146 13.2225366 21.8154146 13.2225366 19.4101463 10.5134634 19.4101463"></polygon>
                <polygon id="Fill-9" points="15.8522927 21.8154146 18.5610732 21.8154146 18.5610732 19.4101463 15.8522927 19.4101463"></polygon>
                <path d="M15.5804488,0 L15.5804488,1.67209756 L8.15479024,1.67209756 L8.15479024,0 L6.07059512,0 L6.07059512,1.67209756 L5.85365851e-05,1.67209756 L5.85365851e-05,26.3414634 L23.7354732,26.3414634 L23.7354732,1.67209756 L17.6646439,1.67209756 L17.6646439,0 L15.5804488,0 Z M17.6646439,5.01102439 L17.6646439,3.756 L21.651278,3.756 L21.651278,7.38029268 L2.08396098,7.38029268 L2.08396098,3.756 L6.07059512,3.756 L6.07059512,5.01102439 L8.15479024,5.01102439 L8.15479024,3.756 L15.5804488,3.756 L15.5804488,5.01102439 L17.6646439,5.01102439 Z M2.08396098,24.257561 L21.6515707,24.257561 L21.6515707,9.4644878 L2.08396098,9.4644878 L2.08396098,24.257561 Z" id="Fill-10"></path>
            </g>
        </g>
    </g>
</svg>

<svg width="24" height="27" viewBox="0 0 24 27" xmlns="http://www.w3.org/2000/svg"><title>Page 1</title><g fill="#FFF" fill-rule="evenodd"><path d="M5.174 13.557h2.71v-2.405h-2.71zm5.339 0h2.71v-2.405h-2.71zm5.339 0h2.71v-2.405h-2.71zM5.174 17.686h2.71v-2.405h-2.71zm5.339 0h2.71v-2.405h-2.71zm5.339 0h2.71v-2.405h-2.71zM5.174 21.815h2.71V19.41h-2.71zm5.339 0h2.71V19.41h-2.71zm5.339 0h2.71V19.41h-2.71z"/><path d="M15.58 0v1.672H8.155V0H6.07v1.672H0v24.67h23.734V1.671h-6.07V0H15.58zm2.085 5.011V3.756h3.986V7.38H2.084V3.756h3.987v1.255h2.084V3.756h7.425v1.255h2.085zM2.084 24.258h19.568V9.464H2.084v14.794z"/></g></svg>
